X: 56
M:6/8
L:1/8
K:D
vA/G/|\
|:ug|\
fbb faa | fed deg | fbb faa | fed e2g |
fbb faa | fed def | gfe dfe | dBB B2:|


